;FLAVOR:Marlin
;TIME:14545
;Filament used: 11.9888m
;Layer height: 0.2
;MINX:33.512
;MINY:71.5
;MINZ:0.2
;MAXX:201.488
;MAXY:163.5
;MAXZ:22.4
;TARGET_MACHINE.NAME:Creality Ender-3
;Generated with Cura_SteamEngine 5.10.0
M140 S50
M105
M190 S50
M104 S200
M105
M109 S200
; Ender 3 Custom Start G-code
G92 E0 ; Reset Extruder
G28 ; Home all axes
G1 Z2.0 F3000 ; Move Z Axis up little to prevent scratching of Heat Bed
G1 X0.1 Y20 Z0.3 F5000.0 ; Move to start position
G1 X0.1 Y200.0 Z0.3 F1500.0 E15 ; Draw the first line
G1 X0.4 Y200.0 Z0.3 F5000.0 ; Move to side a little
G1 X0.4 Y20 Z0.3 F1500.0 E30 ; Draw the second line
G92 E0 ; Reset Extruder
G1 Z2.0 F3000 ; Move Z Axis up little to prevent scratching of Heat Bed
G1 X5 Y20 Z0.3 F5000.0 ; Move over to prevent blob squish
M82 ;absolute extrusion mode
G92 E0
G92 E0
G1 F2700 E-5
;LAYER_COUNT:112
;LAYER:0
M107
G0 F6000 X48.996 Y76.988 Z0.2
;TYPE:SKIRT
G1 F2700 E0
G1 F1200 X49.426 Y76.714 E0.01696
G1 X50.401 Y76.123 E0.05488
G1 X50.796 Y75.896 E0.07003
G1 X51.582 Y75.465 E0.09985
G1 X51.991 Y75.252 E0.11518
G1 X52.974 Y74.769 E0.15161
G1 X53.455 Y74.547 E0.16923
G1 X54.559 Y74.07 E0.20923
G1 X55.022 Y73.884 E0.22583
G1 X56.053 Y73.494 E0.26249
G1 X56.537 Y73.325 E0.27954
G1 X57.626 Y72.974 E0.3176
G1 X58.131 Y72.826 E0.3351
G1 X59.242 Y72.527 E0.37337
G1 X59.748 Y72.405 E0.39068
G1 X60.923 Y72.151 E0.43066
G1 X61.46 Y72.049 E0.44884
G1 X62.548 Y71.872 E0.4855
G1 X63.174 Y71.784 E0.50653
G1 X64.561 Y71.636 E0.55292
G1 X65.094 Y71.596 E0.5707
G1 X66.349 Y71.529 E0.6125
G1 X68.099 Y71.5 E0.67072
G1 X166.902 Y71.5 E3.95692
G1 X168.517 Y71.524 E4.01064
G1 X169.598 Y71.574 E4.04663
G1 X170.106 Y71.61 E4.06357
G1 X171.258 Y71.718 E4.10205
G1 X171.783 Y71.78 E4.11964
G1 X172.933 Y71.947 E4.15829
G1 X173.458 Y72.035 E4.17599
G1 X174.608 Y72.261 E4.21497
G1 X175.875 Y72.556 E4.25824
G1 X176.338 Y72.677 E4.27416
G1 X177.383 Y72.977 E4.31032
G1 X177.931 Y73.15 E4.32943
G1 X179.315 Y73.63 E4.37815
G1 X179.86 Y73.836 E4.39753
G1 X180.868 Y74.248 E4.43375
G1 X181.342 Y74.457 E4.45098
G1 X182.449 Y74.973 E4.4916
G1 X182.863 Y75.178 E4.50697
G1 X183.777 Y75.658 E4.5413
G1 X184.369 Y75.992 E4.56391
G1 X185.312 Y76.549 E4.60034
G1 X185.753 Y76.827 E4.61768
G1 X186.738 Y77.478 E4.65695
G1 X187.131 Y77.748 E4.67281
G1 X188.159 Y78.508 E4.71533
G1 X189.087 Y79.245 E4.75474
G1 X189.494 Y79.584 E4.77236
G1 X190.344 Y80.331 E4.81
G1 X190.821 Y80.771 E4.83158
G1 X191.808 Y81.741 E4.87761
G1 X192.175 Y82.122 E4.8952
G1 X192.958 Y82.977 E4.93376
G1 X193.304 Y83.376 E4.95133
G1 X194.047 Y84.273 E4.99007
G1 X194.35 Y84.657 E5.00634
G1 X195.055 Y85.597 E5.04542
G1 X195.368 Y86.038 E5.0634
G1 X196.011 Y86.994 E5.10172
G1 X196.287 Y87.428 E5.11883
G1 X197.102 Y88.791 E5.17165
G1 X197.533 Y89.578 E5.20149
G1 X197.748 Y89.993 E5.21704
G1 X198.35 Y91.224 E5.26262
G1 X198.61 Y91.804 E5.28376
G1 X199.069 Y92.899 E5.32325
G1 X199.257 Y93.384 E5.34055
G1 X199.653 Y94.477 E5.37921
G1 X199.821 Y94.979 E5.39682
G1 X200.156 Y96.07 E5.43478
G1 X200.489 Y97.306 E5.47736
G1 X200.597 Y97.757 E5.49278
G1 X200.85 Y98.931 E5.53272
G1 X200.948 Y99.449 E5.55026
G1 X201.126 Y100.54 E5.58702
G1 X201.216 Y101.173 E5.60829
G1 X201.364 Y102.558 E5.65462
G1 X201.4 Y103.025 E5.6702
G1 X201.471 Y104.365 E5.71483
G1 X201.488 Y105.346 E5.74746
G1 X201.433 Y106.624 E5.79001
G1 X201.233 Y108.457 E5.85133
G1 X201.015 Y110.935 E5.93407
G1 X200.865 Y113.45 E6.01787
G1 X200.786 Y115.983 E6.10216
G1 X200.777 Y118.495 E6.18571
G1 X200.842 Y121.04 E6.27038
G1 X200.974 Y123.502 E6.35239
G1 X201.178 Y126.005 E6.43591
G1 X201.418 Y128.238 E6.51061
G1 X201.48 Y129.473 E6.55174
G1 X201.465 Y130.79 E6.59554
G1 X201.425 Y131.616 E6.62305
G1 X201.39 Y132.106 E6.63939
G1 X201.282 Y133.266 E6.67814
G1 X201.123 Y134.496 E6.71939
G1 X200.981 Y135.368 E6.74877
G1 X200.82 Y136.221 E6.77764
G1 X200.724 Y136.677 E6.79314
G1 X200.46 Y137.803 E6.83161
G1 X200.335 Y138.288 E6.84827
G1 X200.029 Y139.362 E6.88541
G1 X199.85 Y139.931 E6.90525
G1 X199.37 Y141.315 E6.95397
G1 X199.166 Y141.855 E6.97317
G1 X198.756 Y142.86 E7.00927
G1 X198.543 Y143.346 E7.02692
G1 X198.026 Y144.451 E7.0675
G1 X197.792 Y144.92 E7.08493
G1 X197.273 Y145.899 E7.12178
G1 X197.053 Y146.293 E7.13679
G1 X196.605 Y147.057 E7.16625
G1 X196.336 Y147.493 E7.18329
G1 X195.554 Y148.692 E7.2309
G1 X195.252 Y149.131 E7.24862
G1 X194.492 Y150.159 E7.29114
G1 X193.755 Y151.087 E7.33056
G1 X193.413 Y151.497 E7.34832
G1 X192.45 Y152.585 E7.39664
G1 X192.027 Y153.031 E7.41709
G1 X191.259 Y153.807 E7.4534
G1 X190.878 Y154.174 E7.471
G1 X190.022 Y154.958 E7.5096
G1 X189.628 Y155.3 E7.52696
G1 X188.724 Y156.049 E7.566
G1 X187.687 Y156.848 E7.60954
G1 X187.329 Y157.108 E7.62426
G1 X186.535 Y157.661 E7.65644
G1 X185.816 Y158.136 E7.6851
G1 X184.563 Y158.899 E7.7339
G1 X184.124 Y159.148 E7.75068
G1 X183.137 Y159.68 E7.78798
G1 X182.678 Y159.915 E7.80513
G1 X181.657 Y160.403 E7.84277
G1 X181.176 Y160.618 E7.86029
G1 X180.099 Y161.068 E7.89911
G1 X179.62 Y161.256 E7.91623
G1 X178.524 Y161.653 E7.955
G1 X178.024 Y161.82 E7.97253
G1 X176.942 Y162.153 E8.01018
G1 X176.442 Y162.294 E8.02746
G1 X175.34 Y162.574 E8.06528
G1 X174.912 Y162.674 E8.0799
G1 X174.015 Y162.862 E8.11038
G1 X173.54 Y162.951 E8.12645
G1 X172.452 Y163.128 E8.16312
G1 X171.826 Y163.216 E8.18414
G1 X170.439 Y163.364 E8.23054
G1 X169.906 Y163.404 E8.24831
G1 X168.651 Y163.471 E8.29011
G1 X166.891 Y163.5 E8.34866
G1 X67.972 Y163.499 E11.63872
G1 X66.484 Y163.476 E11.68822
G1 X65.402 Y163.426 E11.72424
G1 X64.895 Y163.39 E11.74115
G1 X63.765 Y163.284 E11.7789
G1 X63.322 Y163.233 E11.79373
G1 X62.219 Y163.079 E11.83077
G1 X61.577 Y162.971 E11.85242
G1 X60.49 Y162.761 E11.88925
G1 X60.035 Y162.662 E11.90473
G1 X59.147 Y162.45 E11.9351
G1 X58.695 Y162.331 E11.95064
G1 X57.258 Y161.913 E12.00042
G1 X56.298 Y161.593 E12.03408
G1 X55.019 Y161.116 E12.07948
G1 X53.949 Y160.673 E12.118
G1 X52.66 Y160.083 E12.16515
G1 X52.08 Y159.792 E12.18673
G1 X51.091 Y159.269 E12.22394
G1 X49.949 Y158.61 E12.26779
G1 X49.557 Y158.369 E12.2831
G1 X48.584 Y157.741 E12.32162
G1 X48.153 Y157.449 E12.33893
G1 X47.257 Y156.807 E12.37559
G1 X46.828 Y156.483 E12.39347
G1 X45.895 Y155.741 E12.43312
G1 X44.89 Y154.881 E12.47712
G1 X43.941 Y154.003 E12.52012
G1 X43.177 Y153.245 E12.55591
G1 X42.279 Y152.289 E12.59954
G1 X41.948 Y151.914 E12.61617
G1 X41.176 Y151.001 E12.65594
G1 X40.863 Y150.614 E12.67249
G1 X40.183 Y149.728 E12.70964
G1 X39.872 Y149.302 E12.72718
G1 X39.227 Y148.369 E12.76491
G1 X38.879 Y147.84 E12.78597
G1 X38.125 Y146.601 E12.83421
G1 X37.898 Y146.209 E12.84928
G1 X37.45 Y145.391 E12.8803
G1 X37.227 Y144.96 E12.89644
G1 X36.761 Y144.009 E12.93166
G1 X36.549 Y143.549 E12.94851
G1 X36.071 Y142.444 E12.98855
G1 X35.883 Y141.977 E13.00529
G1 X35.493 Y140.946 E13.04196
G1 X35.322 Y140.456 E13.05922
G1 X34.972 Y139.368 E13.09723
G1 X34.826 Y138.869 E13.11452
G1 X34.527 Y137.758 E13.15279
G1 X34.403 Y137.243 E13.17041
G1 X34.15 Y136.071 E13.21029
G1 X34.051 Y135.55 E13.22793
G1 X33.873 Y134.458 E13.26473
G1 X33.784 Y133.829 E13.28586
G1 X33.636 Y132.439 E13.33235
G1 X33.545 Y131.059 E13.37835
G1 X33.512 Y129.648 E13.42529
G1 X33.574 Y128.311 E13.46981
G1 X33.762 Y126.595 E13.52722
G1 X33.985 Y124.065 E13.6117
G1 X34.135 Y121.55 E13.69549
G1 X34.214 Y119.017 E13.77978
G1 X34.223 Y116.505 E13.86333
G1 X34.158 Y113.96 E13.94801
G1 X34.026 Y111.497 E14.03005
G1 X33.82 Y108.975 E14.11421
G1 X33.582 Y106.762 E14.18824
G1 X33.52 Y105.527 E14.22936
G1 X33.535 Y104.21 E14.27317
G1 X33.575 Y103.384 E14.30068
G1 X33.61 Y102.894 E14.31701
G1 X33.716 Y101.755 E14.35506
G1 X33.877 Y100.509 E14.39685
G1 X34.042 Y99.506 E14.43066
G1 X34.248 Y98.449 E14.46647
G1 X34.549 Y97.152 E14.51076
G1 X34.666 Y96.702 E14.52622
G1 X34.972 Y95.63 E14.5633
G1 X35.131 Y95.124 E14.58094
G1 X35.517 Y93.991 E14.62075
G1 X35.836 Y93.14 E14.65098
G1 X36.247 Y92.133 E14.68716
G1 X36.456 Y91.658 E14.70442
G1 X36.972 Y90.551 E14.74504
G1 X37.206 Y90.084 E14.76241
G1 X37.724 Y89.106 E14.79922
G1 X37.978 Y88.652 E14.81652
G1 X38.569 Y87.655 E14.85507
G1 X38.842 Y87.22 E14.87215
G1 X39.482 Y86.253 E14.91072
G1 X39.745 Y85.874 E14.92607
G1 X40.232 Y85.204 E14.95362
G1 X40.508 Y84.841 E14.96878
G1 X41.245 Y83.912 E15.00822
G1 X41.587 Y83.503 E15.02596
G1 X42.353 Y82.631 E15.06456
G1 X42.697 Y82.259 E15.08141
G1 X43.532 Y81.398 E15.1213
G1 X43.899 Y81.037 E15.13843
G1 X44.674 Y80.318 E15.17359
G1 X45.594 Y79.514 E15.21423
G1 X46.259 Y78.963 E15.24295
G1 X46.669 Y78.64 E15.26031
G1 X47.603 Y77.941 E15.29911
G1 X48.041 Y77.63 E15.31698
G1 X48.996 Y76.988 E15.35525
G0 F6000 X49.211 Y77.325
G1 F1200 X49.633 Y77.056 E15.3719
G1 X50.6 Y76.47 E15.4095
G1 X50.988 Y76.247 E15.42439
G1 X51.767 Y75.82 E15.45393
G1 X52.168 Y75.611 E15.46897
G1 X53.141 Y75.132 E15.50505
G1 X53.614 Y74.914 E15.52237
G1 X54.709 Y74.441 E15.56204
G1 X55.163 Y74.258 E15.57832
G1 X56.185 Y73.872 E15.61466
G1 X56.66 Y73.706 E15.63139
G1 X57.739 Y73.358 E15.6691
G1 X58.235 Y73.212 E15.6863
G1 X59.336 Y72.916 E15.72422
G1 X59.833 Y72.796 E15.74122
G1 X60.998 Y72.544 E15.78087
G1 X61.524 Y72.444 E15.79867
G1 X62.604 Y72.268 E15.83507
G1 X63.216 Y72.182 E15.85562
G1 X64.592 Y72.035 E15.90165
G1 X65.115 Y71.995 E15.9191
G1 X66.361 Y71.929 E15.9606
G1 X66.777 Y71.916 E15.97444
G1 X68.104 Y71.9 E16.01858
G1 X166.896 Y71.9 E19.30441
G1 X168.499 Y71.924 E19.35774
G1 X169.57 Y71.973 E19.3934
G1 X170.069 Y72.008 E19.41003
G1 X171.211 Y72.115 E19.44818
G1 X171.726 Y72.176 E19.46543
G1 X172.866 Y72.341 E19.50374
G1 X173.381 Y72.428 E19.52111
G1 X174.517 Y72.651 E19.55962
G1 X175.774 Y72.943 E19.60254
G1 X176.228 Y73.061 E19.61814
G1 X177.262 Y73.358 E19.65392
G1 X177.8 Y73.528 E19.67269
G1 X179.174 Y74.004 E19.72105
G1 X179.709 Y74.206 E19.74007
G1 X180.707 Y74.614 E19.77593
G1 X181.173 Y74.819 E19.79287
G1 X182.272 Y75.332 E19.83321
G1 X182.677 Y75.532 E19.84823
G1 X183.581 Y76.007 E19.88219
G1 X184.165 Y76.336 E19.90449
G1 X185.099 Y76.888 E19.94057
G1 X185.533 Y77.161 E19.95763
G1 X186.511 Y77.807 E19.99661
G1 X186.893 Y78.07 E20.01204
G1 X187.91 Y78.821 E20.05408
G1 X188.831 Y79.552 E20.09319
G1 X189.23 Y79.884 E20.11046
G1 X190.073 Y80.625 E20.14779
G1 X190.541 Y81.056 E20.16895
G1 X191.52 Y82.018 E20.2146
G1 X191.88 Y82.392 E20.23187
G1 X192.656 Y83.239 E20.27007
G1 X192.996 Y83.631 E20.28733
G1 X193.733 Y84.521 E20.32576
G1 X194.036 Y84.905 E20.34203
G1 X194.729 Y85.829 E20.38045
G1 X195.036 Y86.261 E20.39808
G1 X195.674 Y87.209 E20.43608
G1 X195.944 Y87.633 E20.4528
G1 X196.751 Y88.983 E20.50511
G1 X197.178 Y89.762 E20.53466
G1 X197.389 Y90.169 E20.54991
G1 X197.985 Y91.388 E20.59504
G1 X198.241 Y91.959 E20.61585
G1 X198.696 Y93.044 E20.65498
G1 X198.881 Y93.52 E20.67197
G1 X199.274 Y94.604 E20.71032
G1 X199.439 Y95.096 E20.72758
G1 X199.77 Y96.174 E20.76509
G1 X200.1 Y97.399 E20.80728
G1 X200.206 Y97.841 E20.8224
G1 X200.457 Y99.005 E20.862
G1 X200.553 Y99.514 E20.87923
G1 X200.73 Y100.596 E20.9157
G1 X200.818 Y101.216 E20.93653
G1 X200.965 Y102.589 E20.98245
G1 X201.001 Y103.046 E20.9977
G1 X201.071 Y104.372 E21.04186
G1 X201.088 Y105.329 E21.0737
G1 X201.035 Y106.581 E21.11538
G1 X200.836 Y108.414 E21.1767
G1 X200.617 Y110.9 E21.25971
G1 X200.465 Y113.438 E21.34427
G1 X200.386 Y115.971 E21.42856
G1 X200.377 Y118.494 E21.51248
G1 X200.442 Y121.05 E21.59752
G1 X200.575 Y123.535 E21.68029
G1 X200.78 Y126.048 E21.76415
G1 X201.02 Y128.281 E21.83885
G1 X201.08 Y129.468 E21.87838
G1 X201.065 Y130.771 E21.92172
G1 X201.026 Y131.588 E21.94892
G1 X200.992 Y132.069 E21.96496
G1 X200.885 Y133.215 E22.00324
G1 X200.728 Y134.432 E22.04405
G1 X200.588 Y135.294 E22.0731
G1 X200.429 Y136.139 E22.1017
G1 X200.335 Y136.586 E22.11689
G1 X200.073 Y137.703 E22.15505
G1 X199.95 Y138.179 E22.1714
G1 X199.648 Y139.242 E22.20816
G1 X199.472 Y139.8 E22.22762
G1 X198.996 Y141.174 E22.27598
G1 X198.796 Y141.704 E22.29482
G1 X198.389 Y142.7 E22.33061
G1 X198.181 Y143.176 E22.34789
G1 X197.668 Y144.272 E22.38813
G1 X197.438 Y144.733 E22.40527
G1 X196.924 Y145.704 E22.44181
G1 X196.708 Y146.091 E22.45655
G1 X196.265 Y146.847 E22.4857
G1 X196.001 Y147.275 E22.50242
G1 X195.225 Y148.465 E22.54967
G1 X194.93 Y148.893 E22.56696
G1 X194.179 Y149.91 E22.60901
G1 X193.448 Y150.831 E22.64812
G1 X193.114 Y151.232 E22.66548
G1 X192.159 Y152.31 E22.71338
G1 X191.743 Y152.75 E22.73352
G1 X190.982 Y153.519 E22.7695
G1 X190.608 Y153.879 E22.78677
G1 X189.76 Y154.656 E22.82502
G1 X189.373 Y154.992 E22.84207
G1 X188.48 Y155.732 E22.88064
G1 X187.451 Y156.525 E22.92385
G1 X187.101 Y156.78 E22.93825
G1 X186.315 Y157.327 E22.9701
G1 X185.608 Y157.794 E22.99828
G1 X184.365 Y158.551 E23.04669
G1 X183.934 Y158.796 E23.06318
G1 X182.955 Y159.324 E23.10017
G1 X182.505 Y159.554 E23.11698
G1 X181.493 Y160.038 E23.15429
G1 X181.022 Y160.249 E23.17146
G1 X179.953 Y160.696 E23.21
G1 X179.484 Y160.88 E23.22675
G1 X178.397 Y161.274 E23.26521
G1 X177.906 Y161.438 E23.28243
G1 X176.833 Y161.768 E23.31977
G1 X176.344 Y161.906 E23.33666
G1 X175.249 Y162.184 E23.37424
G1 X174.821 Y162.284 E23.38886
G1 X173.942 Y162.469 E23.41873
G1 X173.476 Y162.556 E23.4345
G1 X172.396 Y162.732 E23.4709
G1 X171.784 Y162.818 E23.49145
G1 X170.408 Y162.965 E23.53748
G1 X169.885 Y163.005 E23.55492
G1 X168.639 Y163.071 E23.59642
G1 X168.223 Y163.084 E23.61027
G1 X166.891 Y163.1 E23.65457
G1 X67.978 Y163.099 E26.94443
G1 X66.502 Y163.076 E26.99353
G1 X65.43 Y163.027 E27.02922
G1 X64.932 Y162.992 E27.04583
G1 X63.811 Y162.887 E27.08327
G1 X63.377 Y162.837 E27.09781
G1 X62.286 Y162.685 E27.13444
G1 X61.653 Y162.578 E27.15579
G1 X60.575 Y162.37 E27.19231
G1 X60.128 Y162.273 E27.20752
G1 X59.249 Y162.063 E27.23758
G1 X58.807 Y161.947 E27.25278
G1 X57.385 Y161.534 E27.30203
G1 X56.438 Y161.218 E27.33524
G1 X55.172 Y160.746 E27.38017
G1 X54.115 Y160.309 E27.41822
G1 X52.839 Y159.725 E27.46489
G1 X52.267 Y159.438 E27.48618
G1 X51.291 Y158.922 E27.5229
G1 X50.158 Y158.269 E27.56639
G1 X49.774 Y158.033 E27.58138
G1 X48.808 Y157.41 E27.61961
G1 X48.386 Y157.124 E27.63657
G1 X47.498 Y156.488 E27.6729
G1 X47.077 Y156.17 E27.69044
G1 X46.155 Y155.437 E27.72962
G1 X45.162 Y154.587 E27.7731
G1 X44.223 Y153.719 E27.81563
G1 X43.469 Y152.971 E27.85095
G1 X42.571 Y152.015 E27.89458
G1 X42.253 Y151.656 E27.91053
G1 X41.487 Y150.75 E27.94999
G1 X41.18 Y150.37 E27.96624
G1 X40.506 Y149.492 E28.00305
G1 X40.201 Y149.075 E28.02023
G1 X39.561 Y148.149 E28.05767
G1 X39.221 Y147.632 E28.07825
G1 X38.471 Y146.4 E28.12623
G1 X38.249 Y146.017 E28.14095
G1 X37.805 Y145.207 E28.17167
G1 X37.586 Y144.784 E28.18752
G1 X37.124 Y143.841 E28.22244
G1 X36.916 Y143.39 E28.23896
G1 X36.442 Y142.294 E28.27868
G1 X36.257 Y141.836 E28.29511
G1 X35.871 Y140.814 E28.33144
G1 X35.703 Y140.333 E28.34839
G1 X35.356 Y139.255 E28.38605
G1 X35.212 Y138.765 E28.40304
G1 X34.916 Y137.664 E28.44096
G1 X34.794 Y137.159 E28.45824
G1 X34.543 Y135.996 E28.49781
G1 X34.446 Y135.485 E28.51511
G1 X34.269 Y134.402 E28.55161
G1 X34.182 Y133.787 E28.57227
G1 X34.035 Y132.407 E28.61843
G1 X33.999 Y131.956 E28.63347
G1 X33.945 Y131.049 E28.66369
G1 X33.912 Y129.666 E28.70971
G1 X33.972 Y128.354 E28.75339
G1 X34.159 Y126.638 E28.8108
G1 X34.383 Y124.1 E28.89554
G1 X34.535 Y121.562 E28.98011
G1 X34.614 Y119.029 E29.0644
G1 X34.623 Y116.506 E29.14831
G1 X34.558 Y113.95 E29.23335
G1 X34.425 Y111.464 E29.31616
G1 X34.219 Y108.942 E29.40032
G1 X33.98 Y106.719 E29.47468
G1 X33.92 Y105.532 E29.51421
G1 X33.935 Y104.229 E29.55755
G1 X33.974 Y103.412 E29.58476
G1 X34.008 Y102.931 E29.6008
G1 X34.113 Y101.806 E29.63838
G1 X34.272 Y100.574 E29.67969
